resources/svg/gbc-o.svg

<svg xmlns="http://www.w3.org/2000/svg" viewBox="0 0 15 15" fill="none"><path d="M4.5 2.5V2C4.22386 2 4 2.22386 4 2.5H4.5ZM10.5 2.5H11C11 2.22386 10.7761 2 10.5 2V2.5ZM4.5 6.5H4C4 6.77614 4.22386 7 4.5 7V6.5ZM3.5 1H11.5V0H3.5V1ZM12 1.5V11.5H13V1.5H12ZM9.5 14H3.5V15H9.5V14ZM3 13.5V1.5H2V13.5H3ZM3.5 14C3.22386 14 3 13.7761 3 13.5H2C2 14.3284 2.67157 15 3.5 15V14ZM12 11.5C12 12.8807 10.8807 14 9.5 14V15C11.433 15 13 13.433 13 11.5H12ZM11.5 1C11.7761 1 12 1.22386 12 1.5H13C13 0.671573 12.3284 0 11.5 0V1ZM3.5 0C2.67157 0 2 0.671574 2 1.5H3C3 1.22386 3.22386 1 3.5 1V0ZM4.5 3H10.5V2H4.5V3ZM10 2.5V5.5H11V2.5H10ZM9.5 6H4.5V7H9.5V6ZM5 6.5V2.5H4V6.5H5ZM10 5.5C10 5.77614 9.77614 6 9.5 6V7C10.3284 7 11 6.32843 11 5.5H10ZM5 8V11H6V8H5ZM4 10H7V9H4V10ZM10 9H11V8H10V9ZM9 11H10V10H9V11Z" fill="black"/></svg>

<svg xmlns="http://www.w3.org/2000/svg" viewBox="0 0 15 15" fill="none"><path d="M4.5 2.5V2a.5.5 0 00-.5.5h.5zm6 0h.5a.5.5 0 00-.5-.5v.5zm-6 4H4a.5.5 0 00.5.5v-.5zM3.5 1h8V0h-8v1zm8.5.5v10h1v-10h-1zM9.5 14h-6v1h6v-1zM3 13.5v-12H2v12h1zm.5.5a.5.5 0 01-.5-.5H2A1.5 1.5 0 003.5 15v-1zm8.5-2.5A2.5 2.5 0 019.5 14v1a3.5 3.5 0 003.5-3.5h-1zM11.5 1a.5.5 0 01.5.5h1A1.5 1.5 0 0011.5 0v1zm-8-1A1.5 1.5 0 002 1.5h1a.5.5 0 01.5-.5V0zm1 3h6V2h-6v1zm5.5-.5v3h1v-3h-1zM9.5 6h-5v1h5V6zM5 6.5v-4H4v4h1zm5-1a.5.5 0 01-.5.5v1A1.5 1.5 0 0011 5.5h-1zM5 8v3h1V8H5zm-1 2h3V9H4v1zm6-1h1V8h-1v1zm-1 2h1v-1H9v1z" fill="currentColor"/></svg>
